X: 17579
T: Hoban's White House
R: jig
M: 6/8
K: Gmajor
|:B2B cBd|Bgd bgd|B2B dcB|ADD [Fd][G^c][A=c]|B2B cBd|
Bgd bgd|1 a2g fag|fd^c dc=c:|2 afd gec|dBG cBG||
|:AFD DED|AFD EFG|AFD EFG|ABc BAG|
AFD DED|DED AFD|EFG ABc|1 dBG cBG:|2 d2c2=c2||

